assets/images/fund.svg

<svg fill="#82bc00" viewBox="0 0 64 64" xmlns="http://www.w3.org/2000/svg"><path d="m54.97 9.361a3.636 3.636 0 0 0 -1.947-2.043 3.709 3.709 0 0 0 -2.871-.059 3.639 3.639 0 0 0 -1.965 1.847 21.989 21.989 0 0 0 -32.374 0 3.639 3.639 0 0 0 -1.965-1.847 3.7 3.7 0 0 0 -2.871.059 3.638 3.638 0 0 0 -1.947 2.042l-5.89 15.449a17.311 17.311 0 0 0 .143 12.732l3.098 7.459h-.381a1 1 0 0 0 -1 1v8a1 1 0 0 0 1 1v7h2v-7h10v7h2v-7a1 1 0 0 0 1-1v-8a1 1 0 0 0 -1-1v-2.566a21.977 21.977 0 0 0 24 0v2.566a1 1 0 0 0 -1 1v8a1 1 0 0 0 1 1v7h2v-7h10v7h2v-7a1 1 0 0 0 1-1v-8a1 1 0 0 0 -1-1h-.381l3.1-7.466a17.31 17.31 0 0 0 .14-12.726zm-22.97-5.361a20.072 20.072 0 0 1 16.2 8.269h.005l2.663 6.272a3.4 3.4 0 0 0 -.368-.041 3.466 3.466 0 0 0 -1.283.251 18 18 0 0 0 -34.434 0 3.466 3.466 0 0 0 -1.283-.251 3.4 3.4 0 0 0 -.367.037l2.667-6.272h.005a20.072 20.072 0 0 1 16.195-8.265zm-15 25.564v-7.564a3.464 3.464 0 0 0 -.527-1.823 15.988 15.988 0 0 1 31.054 0 3.464 3.464 0 0 0 -.527 1.823v7.564a16 16 0 0 1 -30 0zm2 17.436v6h-12v-6zm-10.452-2-3.414-8.22a15.307 15.307 0 0 1 -.125-11.259l5.891-15.448a1.648 1.648 0 0 1 .886-.925 1.7 1.7 0 0 1 1.33-.027 1.651 1.651 0 0 1 .931.9 1.589 1.589 0 0 1 0 1.249l-3.55 8.36a6.183 6.183 0 0 0 -.488 2.308c0 .021-.006.04-.006.06v.062 11.94h2v-11.938c0-.133.027-.262.039-.393a1.5 1.5 0 0 1 2.958.331v7.757a7.1 7.1 0 0 0 .744 3.155 21.466 21.466 0 0 1 2.256 9.553v2.535zm23.452-1a19.766 19.766 0 0 1 -12.149-4.127 23.6 23.6 0 0 0 -.586-3.174 17.948 17.948 0 0 0 25.47 0 23.6 23.6 0 0 0 -.586 3.174 19.766 19.766 0 0 1 -12.149 4.127zm25 3v6h-12v-6zm1.869-10.227-3.417 8.227h-9.452v-2.535a21.473 21.473 0 0 1 2.256-9.554 7.089 7.089 0 0 0 .744-3.154v-7.757a1.5 1.5 0 0 1 2.961-.331c.012.131.039.26.039.393v11.938h2v-11.938c0-.021 0-.041 0-.062 0-.02-.006-.039-.006-.06a6.183 6.183 0 0 0 -.488-2.308l-3.55-8.36a1.589 1.589 0 0 1 0-1.249 1.651 1.651 0 0 1 .931-.9 1.706 1.706 0 0 1 1.33.027 1.648 1.648 0 0 1 .886.925l5.89 15.448a15.3 15.3 0 0 1 -.124 11.25z"/><path d="m53 49h2v2h-2z"/><path d="m9 49h2v2h-2z"/><path d="m31 29.975v2.025h2v-2.025a3.24 3.24 0 0 0 1-6.225l-3.23-1.35a1.25 1.25 0 0 1 .48-2.4h1.5a1.252 1.252 0 0 1 1.25 1.25v.75h2v-.75a3.244 3.244 0 0 0 -3-3.225v-2.025h-2v2.025a3.24 3.24 0 0 0 -1 6.225l3.23 1.35a1.25 1.25 0 0 1 -.48 2.4h-1.5a1.252 1.252 0 0 1 -1.25-1.25v-.75h-2v.75a3.244 3.244 0 0 0 3 3.225z"/><path d="m39 23h2v2h-2z"/><path d="m23 23h2v2h-2z"/></svg>

<svg fill="#82BC00" xmlns="http://www.w3.org/2000/svg" viewBox="0 0 64 64" x="0px" y="0px"><title>004_Startup_Icon_64x64</title><g><path d="M54.97,9.361a3.636,3.636,0,0,0-1.947-2.043,3.709,3.709,0,0,0-2.871-.059,3.639,3.639,0,0,0-1.965,1.847,21.989,21.989,0,0,0-32.374,0,3.639,3.639,0,0,0-1.965-1.847,3.7,3.7,0,0,0-2.871.059A3.638,3.638,0,0,0,9.03,9.36L3.14,24.809a17.311,17.311,0,0,0,.143,12.732L6.381,45H6a1,1,0,0,0-1,1v8a1,1,0,0,0,1,1v7H8V55H18v7h2V55a1,1,0,0,0,1-1V46a1,1,0,0,0-1-1V42.434a21.977,21.977,0,0,0,24,0V45a1,1,0,0,0-1,1v8a1,1,0,0,0,1,1v7h2V55H56v7h2V55a1,1,0,0,0,1-1V46a1,1,0,0,0-1-1h-.381l3.1-7.466a17.31,17.31,0,0,0,.14-12.726ZM32,4a20.072,20.072,0,0,1,16.2,8.269l.005,0,2.663,6.272A3.4,3.4,0,0,0,50.5,18.5a3.466,3.466,0,0,0-1.283.251,18,18,0,0,0-34.434,0A3.466,3.466,0,0,0,13.5,18.5a3.4,3.4,0,0,0-.367.037L15.8,12.265l.005,0A20.072,20.072,0,0,1,32,4ZM17,29.564V22a3.464,3.464,0,0,0-.527-1.823,15.988,15.988,0,0,1,31.054,0A3.464,3.464,0,0,0,47,22v7.564a16,16,0,0,1-30,0ZM19,47v6H7V47ZM8.548,45,5.134,36.78a15.307,15.307,0,0,1-.125-11.259L10.9,10.073a1.648,1.648,0,0,1,.886-.925,1.7,1.7,0,0,1,1.33-.027,1.651,1.651,0,0,1,.931.9,1.589,1.589,0,0,1,0,1.249l-3.55,8.36a6.183,6.183,0,0,0-.488,2.308c0,.021-.006.04-.006.06h0c0,.021,0,.041,0,.062V34h2V22.062c0-.133.027-.262.039-.393A1.5,1.5,0,0,1,15,22v7.757a7.1,7.1,0,0,0,.744,3.155A21.466,21.466,0,0,1,18,42.465V45ZM32,44a19.766,19.766,0,0,1-12.149-4.127,23.6,23.6,0,0,0-.586-3.174,17.948,17.948,0,0,0,25.47,0,23.6,23.6,0,0,0-.586,3.174A19.766,19.766,0,0,1,32,44Zm25,3v6H45V47Zm1.869-10.227L55.452,45H46V42.465a21.473,21.473,0,0,1,2.256-9.554A7.089,7.089,0,0,0,49,29.757V22a1.5,1.5,0,0,1,2.961-.331c.012.131.039.26.039.393V34h2V22.062c0-.021,0-.041,0-.062h0c0-.02-.006-.039-.006-.06a6.183,6.183,0,0,0-.488-2.308l-3.55-8.36a1.589,1.589,0,0,1,0-1.249,1.651,1.651,0,0,1,.931-.9,1.706,1.706,0,0,1,1.33.027,1.648,1.648,0,0,1,.886.925l5.89,15.448A15.3,15.3,0,0,1,58.869,36.773Z"></path><rect x="53" y="49" width="2" height="2"></rect><rect x="9" y="49" width="2" height="2"></rect><path d="M31,29.975V32h2V29.975a3.24,3.24,0,0,0,1-6.225L30.77,22.4a1.25,1.25,0,0,1,.48-2.4h1.5A1.252,1.252,0,0,1,34,21.25V22h2v-.75a3.244,3.244,0,0,0-3-3.225V16H31v2.025a3.24,3.24,0,0,0-1,6.225L33.23,25.6a1.25,1.25,0,0,1-.48,2.4h-1.5A1.252,1.252,0,0,1,30,26.75V26H28v.75A3.244,3.244,0,0,0,31,29.975Z"></path><rect x="39" y="23" width="2" height="2"></rect><rect x="23" y="23" width="2" height="2"></rect></g></svg>
